X:168
T: Imperial Quick Step
N: O'Farrell's Pocket Companion v.2 (Sky ed. p.84)
N: "Scotch"
M: 2/4
L: 1/8
R: polka
Q: 240
K: D
A|dd f>d|ee g>e|dd f>d|e/d/c/B/ A/G/F/E/|
dd f>d|ee g>e|fe/d/ c/d/e/c/|d2d :|
P:2
z|ff a>f|affd|eege|ge d/c/B/A/|ffa>f affd|
e/f/g/e/ d/c/B/A/|dd/e/ d :|
P:3
z|dd/e/ cc/d/|BB/d/ A2|BB cc|d/f/a/b/ a/g/f/e/|
df/d/ ce/c/|Be/B/ AA|BB c/d/e/c/ d2d :|
P:4
f/g/|aff>a|gee>g|fdd>f|e/d/c/B/ Af/g/|af f/g/a/b/|
ge e>g|fd c/d/e/c/ d2d :|
